X:1
T: The Maids of Mitchellstown
C:
R:Reel
Q: 232
K:Em
M:4/4
L:1/8
|:D2 AG EF GE|AB GE cA GE|D2 AG EF GB|AB GE CE GE|
D2 AG EF GE|AB GE cA GE|D2 AG EF GB|Ac GE ED D2|
DE GA c2 AG|Ad de f2 ed|cA GE FE FG|AF GE ED D2|
DE GA c2 AG|Ad de f2 ed|cA GE FE FG|Ad dB GE E2:|
